X:83
T:Candle Gill.
M:6/8
L:1/8
S:Vicker's MS
R:Jig
Z:C.G.P
K:G
G2AB2c | BAG FED | G2AB2c | dcB AGF | G2G GAB | D2DD2B, | C2ED2C | B,G,G,G,3 :|
|: B,2B,D2B, | DE=F FED | C2CE2C | EFG GEC | B,2B,D2B, | GAB =FDB, | C2ED2C | B,G,G,G,3 :|
